img/service-delivery__01.svg

<svg width="60" height="54" viewBox="0 0 60 54" fill="none" xmlns="http://www.w3.org/2000/svg">
<path fill-rule="evenodd" clip-rule="evenodd" d="M44.1422 15.8423C44.1422 10.0997 39.4707 5.42773 33.7281 5.42773C27.9854 5.42773 23.3135 10.0997 23.3135 15.8423C23.3135 21.5845 27.9854 26.2564 33.7281 26.2564C39.4702 26.2564 44.1422 21.5845 44.1422 15.8423ZM25.6572 15.8423C25.6572 11.3919 29.2777 7.77148 33.7281 7.77148C38.178 7.77148 41.7984 11.3919 41.7984 15.8423C41.7984 20.2922 38.178 23.9127 33.7281 23.9127C29.2777 23.9127 25.6572 20.2922 25.6572 15.8423Z" fill="#F04E23"/>
<path fill-rule="evenodd" clip-rule="evenodd" d="M59.9377 52.3671L57.2392 44.479C57.03 43.8665 56.3635 43.5401 55.7515 43.7493C55.139 43.9589 54.8121 44.625 55.0218 45.2375L56.8611 50.6139L46.3389 46.0431C46.0835 45.9324 45.7969 45.9163 45.5305 45.9974L30.0009 50.7306L14.4712 45.9974C14.2048 45.9163 13.9183 45.9324 13.6628 46.0431L3.14113 50.6139L4.97997 45.2375C5.18963 44.625 4.86278 43.9589 4.25029 43.7493C3.63826 43.5401 2.97176 43.8665 2.76256 44.479L0.064045 52.3671C-0.0861015 52.8066 0.037037 53.2927 0.378071 53.6077C0.598713 53.8114 0.8839 53.9185 1.17321 53.9185C1.33068 53.9185 1.48952 53.8865 1.63967 53.8215L14.2007 48.3649L29.6594 53.0762C29.8819 53.1444 30.1199 53.1444 30.3424 53.0762L45.801 48.3649L58.3621 53.8215C58.7883 54.0064 59.2826 53.9226 59.6237 53.6077C59.9647 53.2927 60.0879 52.8066 59.9377 52.3671Z" fill="#F04E23"/>
<path fill-rule="evenodd" clip-rule="evenodd" d="M6.52808 37.0951C6.65351 37.1381 6.78168 37.1587 6.90757 37.1587C7.39463 37.1587 7.84964 36.8524 8.01627 36.3658L10.5404 28.9862L18.0514 25.9787V39.0049C18.0514 39.4818 18.3407 39.9112 18.7829 40.0907C18.9257 40.1488 19.0749 40.1767 19.2228 40.1767C19.5341 40.1767 19.8389 40.0527 20.0642 39.821L28.8651 30.7509C30.432 31.2627 32.0653 31.5213 33.7302 31.5213C37.9801 31.5213 41.84 29.8207 44.6667 27.0655L49.4631 28.9862L51.9877 36.3658C52.1543 36.8524 52.6093 37.1587 53.0964 37.1587C53.2218 37.1587 53.35 37.1381 53.4754 37.0951C54.0879 36.8859 54.4147 36.2194 54.2051 35.6073L51.5066 27.7187C51.3962 27.396 51.1504 27.1373 50.8337 27.0101L46.3055 25.1969C48.2542 22.584 49.4086 19.3457 49.4086 15.8429C49.4086 7.1976 42.3756 0.164062 33.7302 0.164062C25.0849 0.164062 18.0514 7.1976 18.0514 15.8429V23.4537L9.17029 27.0101C8.85352 27.1373 8.6077 27.396 8.49692 27.7187L5.79886 35.6073C5.58921 36.2194 5.91559 36.8859 6.52808 37.0951ZM20.3951 15.8429C20.3951 8.48987 26.3772 2.50781 33.7302 2.50781C41.0828 2.50781 47.0649 8.48987 47.0649 15.8429C47.0649 23.1955 41.0828 29.1776 33.7302 29.1776C32.0896 29.1776 30.487 28.8828 28.9663 28.301C28.5287 28.1334 28.0329 28.2433 27.7065 28.5797L20.3951 36.1145V15.8429Z" fill="#F04E23"/>
<path fill-rule="evenodd" clip-rule="evenodd" d="M5.38379 41.5938C6.02924 41.5938 6.55566 41.0673 6.55566 40.4219C6.55566 39.7764 6.02924 39.25 5.38379 39.25C4.73834 39.25 4.21191 39.7764 4.21191 40.4219C4.21191 41.0673 4.73834 41.5938 5.38379 41.5938Z" fill="#F04E23"/>
<path fill-rule="evenodd" clip-rule="evenodd" d="M53.4394 40.422C53.4394 41.0674 53.9659 41.5938 54.6113 41.5938C55.2567 41.5938 55.7832 41.0674 55.7832 40.422C55.7832 39.7765 55.2567 39.2501 54.6113 39.2501C53.9659 39.2501 53.4394 39.7765 53.4394 40.422Z" fill="#F04E23"/>
</svg>

<svg width="60" height="54" fill="none" xmlns="http://www.w3.org/2000/svg"><path fill-rule="evenodd" clip-rule="evenodd" d="M44.142 15.842c0-5.742-4.671-10.414-10.414-10.414-5.743 0-10.415 4.672-10.415 10.414s4.672 10.414 10.415 10.414c5.742 0 10.414-4.672 10.414-10.414zm-18.485 0c0-4.45 3.62-8.07 8.071-8.07 4.45 0 8.07 3.62 8.07 8.07s-3.62 8.07-8.07 8.07-8.07-3.62-8.07-8.07zm34.281 36.525l-2.699-7.888a1.172 1.172 0 10-2.217.758l1.84 5.377-10.523-4.57a1.174 1.174 0 00-.808-.047L30 50.731l-15.53-4.734a1.174 1.174 0 00-.808.046L3.14 50.613l1.839-5.376a1.172 1.172 0 10-2.217-.758L.064 52.367a1.172 1.172 0 001.576 1.455l12.56-5.457 15.46 4.711c.222.068.46.068.682 0l15.459-4.711 12.561 5.456a1.172 1.172 0 001.576-1.454z" fill="#F04E23"/><path fill-rule="evenodd" clip-rule="evenodd" d="M6.528 37.095a1.17 1.17 0 001.488-.73l2.524-7.379 7.511-3.007v13.026a1.172 1.172 0 002.013.816l8.801-9.07c1.567.512 3.2.77 4.865.77 4.25 0 8.11-1.7 10.937-4.456l4.796 1.921 2.525 7.38a1.173 1.173 0 002.217-.759l-2.698-7.888a1.173 1.173 0 00-.673-.709l-4.529-1.813a15.596 15.596 0 003.104-9.354C49.409 7.198 42.376.164 33.73.164c-8.645 0-15.679 7.034-15.679 15.679v7.61l-8.88 3.557a1.175 1.175 0 00-.674.709l-2.698 7.888c-.21.612.117 1.279.73 1.488zm13.867-21.252c0-7.353 5.982-13.335 13.335-13.335 7.353 0 13.335 5.982 13.335 13.335 0 7.352-5.982 13.335-13.335 13.335a13.28 13.28 0 01-4.764-.877 1.172 1.172 0 00-1.26.279l-7.31 7.535V15.843zM5.384 41.594c.645 0 1.172-.527 1.172-1.172 0-.646-.527-1.172-1.172-1.172-.646 0-1.172.526-1.172 1.172 0 .645.526 1.172 1.172 1.172zm48.056-1.172c0 .645.526 1.172 1.171 1.172.646 0 1.172-.527 1.172-1.172 0-.645-.526-1.172-1.172-1.172-.645 0-1.172.526-1.172 1.172z" fill="#F04E23"/></svg>
